images_sukapura_svg/cmd/32/zoomprevious.svg

<svg viewBox="0 0 32 32" xmlns="http://www.w3.org/2000/svg" xmlns:xlink="http://www.w3.org/1999/xlink"><linearGradient id="a" gradientTransform="matrix(-1 0 0 1 28.994043 0)" gradientUnits="userSpaceOnUse" x1="27" x2="27" y1="15" y2="3.5"><stop offset="0" stop-color="#0040dd"/><stop offset="1" stop-color="#0a84ff"/></linearGradient><path d="m13 3a10 10 0 0 0 -10 10 10 10 0 0 0 10 10 10 10 0 0 0 6.296875-2.242188l7.322266 7.320313c.391737.391737 1.022325.391737 1.414062 0l.707031-.707031c.391738-.391737.391738-1.022326 0-1.414063l-7.421875-7.419922a10 10 0 0 0 1.681641-5.537109 10 10 0 0 0 -10-10zm.003906 2.0039062a8 8 0 0 1 8 7.9999998 8 8 0 0 1 -8 8 8 8 0 0 1 -7.9999998-8 8 8 0 0 1 7.9999998-7.9999998zm7.470703 14.6210938c-.039771.04485-.078569.090639-.11914.134766a10 10 0 0 0 .11914-.134766zm-.544921.568359c-.057149.055035-.115359.108426-.173829.16211a10 10 0 0 0 .173829-.16211z" fill="#69696e"/><path d="m7 5.015625a10 10 0 0 0 -4 7.984375 10 10 0 0 0 .0449219.873047l.5410156.541015a1.0060813 1.0060813 0 0 0 .0019531.001954c.4599273.457883 1.0899287.627371 1.6679688.55664a8 8 0 0 1 -.2519532-1.96875 8 8 0 0 1 4.1621094-7.0097654h-2.1660156z" fill="#fff" fill-opacity=".784314"/><path d="m5.015527 4.0058594c.542705.0090755.978038.4513595.978516.9941406v2h7c.554 0 1 .446 1 1v2c0 .554-.446 1-1 1h-7v2c-.0019.884497-1.070439 1.327166-1.697266.703125l-4.005859-4c-.387891-.3885049-.387891-1.0177451 0-1.40625l4.005859-4c.19038-.1901968.449674-.2951823.71875-.2910156z" fill="url(#a)"/></svg>

<?xml version="1.0" encoding="UTF-8" standalone="no"?>
<svg
   xmlns:dc="http://purl.org/dc/elements/1.1/"
   xmlns:cc="http://creativecommons.org/ns#"
   xmlns:rdf="http://www.w3.org/1999/02/22-rdf-syntax-ns#"
   xmlns:svg="http://www.w3.org/2000/svg"
   xmlns="http://www.w3.org/2000/svg"
   xmlns:xlink="http://www.w3.org/1999/xlink"
   xmlns:sodipodi="http://sodipodi.sourceforge.net/DTD/sodipodi-0.dtd"
   xmlns:inkscape="http://www.inkscape.org/namespaces/inkscape"
   viewBox="0 0 32 32"
   version="1.1"
   id="svg12"
   sodipodi:docname="zoomprevious.svg"
   inkscape:version="0.92.3 (unknown)"
   inkscape:export-filename="/home/rizmut/Dokumen/Rizmut/Github/libreoffice-style-sukapura/images_sukapura/cmd/32/zoomprevious.png"
   inkscape:export-xdpi="96"
   inkscape:export-ydpi="96">
  <metadata
     id="metadata18">
    <rdf:RDF>
      <cc:Work
         rdf:about="">
        <dc:format>image/svg+xml</dc:format>
        <dc:type
           rdf:resource="http://purl.org/dc/dcmitype/StillImage" />
        <dc:title></dc:title>
      </cc:Work>
    </rdf:RDF>
  </metadata>
  <defs
     id="defs16">
    <linearGradient
       gradientTransform="translate(75,-7)"
       id="a-367"
       gradientUnits="userSpaceOnUse"
       x1="14"
       x2="13.79661"
       y1="22"
       y2="2.1355929">
      <stop
         offset="0"
         stop-color="#0040dd"
         id="stop2206" />
      <stop
         offset="1"
         stop-color="#0a84ff"
         id="stop2208" />
    </linearGradient>
    <linearGradient
       inkscape:collect="always"
       xlink:href="#a-367"
       id="linearGradient854"
       x1="27"
       y1="15"
       x2="27"
       y2="3.5"
       gradientUnits="userSpaceOnUse"
       gradientTransform="matrix(-1,0,0,1,28.994043,0)" />
  </defs>
  <sodipodi:namedview
     pagecolor="#ffffff"
     bordercolor="#666666"
     borderopacity="1"
     objecttolerance="10"
     gridtolerance="10"
     guidetolerance="10"
     inkscape:pageopacity="0"
     inkscape:pageshadow="2"
     inkscape:window-width="1350"
     inkscape:window-height="691"
     id="namedview14"
     showgrid="true"
     inkscape:snap-global="true"
     inkscape:zoom="22.627418"
     inkscape:cx="4.4912637"
     inkscape:cy="27.838424"
     inkscape:window-x="0"
     inkscape:window-y="0"
     inkscape:window-maximized="0"
     inkscape:current-layer="svg12"
     inkscape:snap-smooth-nodes="true">
    <inkscape:grid
       type="xygrid"
       id="grid828"
       spacingx="0.5"
       spacingy="0.5"
       empspacing="2" />
  </sodipodi:namedview>
  <path
     style="opacity:1;fill:#69696e;fill-opacity:1;stroke:none;stroke-width:1;stroke-linecap:round;stroke-linejoin:round;stroke-miterlimit:4;stroke-dasharray:none;stroke-opacity:0"
     d="M 13 3 A 10 10 0 0 0 3 13 A 10 10 0 0 0 13 23 A 10 10 0 0 0 19.296875 20.757812 L 26.619141 28.078125 C 27.010878 28.469862 27.641466 28.469862 28.033203 28.078125 L 28.740234 27.371094 C 29.131972 26.979357 29.131972 26.348768 28.740234 25.957031 L 21.318359 18.537109 A 10 10 0 0 0 23 13 A 10 10 0 0 0 13 3 z M 13.003906 5.0039062 A 8 8 0 0 1 21.003906 13.003906 A 8 8 0 0 1 13.003906 21.003906 A 8 8 0 0 1 5.0039062 13.003906 A 8 8 0 0 1 13.003906 5.0039062 z M 20.474609 19.625 C 20.434838 19.66985 20.39604 19.715639 20.355469 19.759766 A 10 10 0 0 0 20.474609 19.625 z M 19.929688 20.193359 C 19.872539 20.248394 19.814329 20.301785 19.755859 20.355469 A 10 10 0 0 0 19.929688 20.193359 z "
     id="path856" />
  <path
     style="fill:#ffffff;fill-opacity:0.78431374;stroke:none"
     d="M 7 5.015625 A 10 10 0 0 0 3 13 A 10 10 0 0 0 3.0449219 13.873047 L 3.5859375 14.414062 A 1.0060813 1.0060813 0 0 0 3.5878906 14.416016 C 4.0478179 14.873899 4.6778193 15.043387 5.2558594 14.972656 A 8 8 0 0 1 5.0039062 13.003906 A 8 8 0 0 1 9.1660156 5.9941406 L 7 5.9941406 L 7 5.015625 z "
     id="path822" />
  <path
     style="fill:url(#linearGradient854);fill-opacity:1;stroke:none"
     d="M 5.015527,4.0058594 C 5.558232,4.0149349 5.993565,4.4572189 5.994043,5 v 2 h 7 c 0.554,0 1,0.446 1,1 v 2 c 0,0.554 -0.446,1 -1,1 h -7 v 2 c -0.0019,0.884497 -1.070439,1.327166 -1.697266,0.703125 l -4.005859,-4 c -0.387891,-0.3885049 -0.387891,-1.0177451 0,-1.40625 l 4.005859,-4 C 4.487157,4.1066782 4.746451,4.0016927 5.015527,4.0058594 Z"
     id="rect8"
     inkscape:connector-curvature="0"
     sodipodi:nodetypes="cccssssccccccc" />
</svg>
